build/system/ZoomOutOutline.svg

<svg xmlns="http://www.w3.org/2000/svg" fill="none" viewBox="0 0 24 24" focusable="false"><path d="M0 0H24V24H0z"/><path fill="#74767B" fill-rule="evenodd" d="M4 11C4 7.13 7.13 4 11 4C14.87 4 18 7.13 18 11C18 12.7621 17.3511 14.3708 16.2789 15.6005L19.7802 19.111C20.0337 19.3652 20.0332 19.7767 19.779 20.0302C19.5248 20.2837 19.1133 20.2832 18.8598 20.029L15.3373 16.4973C14.1453 17.4386 12.639 18 11 18C7.13 18 4 14.87 4 11ZM16.7 11C16.7 7.86 14.14 5.3 11 5.3C7.86 5.3 5.3 7.86 5.3 11C5.3 14.14 7.86 16.7 11 16.7C14.14 16.7 16.7 14.14 16.7 11ZM13.8581 10.9959C13.8581 10.637 13.5671 10.3459 13.2081 10.3459L8.84116 10.3459C8.48217 10.3459 8.19116 10.637 8.19116 10.9959C8.19116 11.3549 8.48217 11.6459 8.84116 11.6459L13.2081 11.6459C13.5671 11.6459 13.8581 11.3549 13.8581 10.9959Z"/></svg>

<svg xmlns="http://www.w3.org/2000/svg" fill="none" viewBox="0 0 24 24" focusable="false"><path fill="#74767B" fill-rule="evenodd" d="M4 11c0-3.87 3.12-7 7-7 3.87 0 7 3.13 7 7 0 1.76-.65 3.37-1.73 4.6l3.51 3.51c.25.25.25.66-.01.92-.25.25-.66.25-.92-.01l-3.52-3.53A6.988 6.988 0 0 1 4 11m12.7 0c0-3.15-2.56-5.71-5.7-5.71-3.15 0-5.71 2.56-5.71 5.71 0 3.14 2.56 5.7 5.71 5.7 3.14 0 5.7-2.56 5.7-5.7m-3.5-.66c.36 0 .65.29.65.65s-.29.65-.65.65H8.84c-.36 0-.65-.29-.65-.65s.29-.65.65-.65z"/></svg>
